X: 158
T:Pasacorredoiras de Pontearéas
M:2/4
L:1/16
Q:140
C:Trad
R:Pasacorredoiras
K:C
EF |: G2cB dcBA | AGFA G2GF | AGFE D2FE |
GFED C2EF | G2cB dcBA |AGFA G2GA | Bcdc BGAB |1
c6 EF :|2 c6 FA |: FAFA FAFA | EGEG EGEG  | DFDF DFDF|
EDEF G2E2 |FAFA FAFA| EGEG EGEG| DFDF DFED | C8:| 

